src/assets/qr_icon.svg

<svg width="38" height="37" viewBox="0 0 38 37" fill="none" xmlns="http://www.w3.org/2000/svg">
<path d="M14.4274 8.325V13.875H9.00385V8.325H14.4274ZM17.1391 5.55H6.2921V16.65H17.1391V5.55ZM14.4274 23.125V28.675H9.00385V23.125H14.4274ZM17.1391 20.35H6.2921V31.45H17.1391V20.35ZM28.89 8.325V13.875H23.4665V8.325H28.89ZM31.6018 5.55H20.7548V16.65H31.6018V5.55ZM20.7548 20.35H23.4665V23.125H20.7548V20.35ZM23.4665 23.125H26.1783V25.9H23.4665V23.125ZM26.1783 20.35H28.89V23.125H26.1783V20.35ZM20.7548 25.9H23.4665V28.675H20.7548V25.9ZM23.4665 28.675H26.1783V31.45H23.4665V28.675ZM26.1783 25.9H28.89V28.675H26.1783V25.9ZM28.89 23.125H31.6018V25.9H28.89V23.125ZM28.89 28.675H31.6018V31.45H28.89V28.675ZM35.2174 9.25C34.2231 9.25 33.4096 8.4175 33.4096 7.4V3.7H29.7939C28.7996 3.7 27.9861 2.8675 27.9861 1.85C27.9861 0.8325 28.7996 0 29.7939 0H35.2174C36.2118 0 37.0253 0.8325 37.0253 1.85V7.4C37.0253 8.4175 36.2118 9.25 35.2174 9.25ZM37.0253 35.15V29.6C37.0253 28.5825 36.2118 27.75 35.2174 27.75C34.2231 27.75 33.4096 28.5825 33.4096 29.6V33.3H29.7939C28.7996 33.3 27.9861 34.1325 27.9861 35.15C27.9861 36.1675 28.7996 37 29.7939 37H35.2174C36.2118 37 37.0253 36.1675 37.0253 35.15ZM2.67643 37H8.09993C9.09424 37 9.90776 36.1675 9.90776 35.15C9.90776 34.1325 9.09424 33.3 8.09993 33.3H4.48426V29.6C4.48426 28.5825 3.67073 27.75 2.67643 27.75C1.68212 27.75 0.868591 28.5825 0.868591 29.6V35.15C0.868591 36.1675 1.68212 37 2.67643 37ZM0.868591 1.85V7.4C0.868591 8.4175 1.68212 9.25 2.67643 9.25C3.67073 9.25 4.48426 8.4175 4.48426 7.4V3.7H8.09993C9.09424 3.7 9.90776 2.8675 9.90776 1.85C9.90776 0.8325 9.09424 0 8.09993 0H2.67643C1.68212 0 0.868591 0.8325 0.868591 1.85Z" fill="white"/>
</svg>

<svg width="38" height="37" fill="none" xmlns="http://www.w3.org/2000/svg"><path d="M14.427 8.325v5.55H9.004v-5.55h5.423ZM17.14 5.55H6.292v11.1H17.14V5.55Zm-2.712 17.575v5.55H9.004v-5.55h5.423Zm2.712-2.775H6.292v11.1H17.14v-11.1ZM28.89 8.325v5.55h-5.424v-5.55h5.424Zm2.712-2.775H20.755v11.1h10.847V5.55Zm-10.847 14.8h2.712v2.775h-2.712V20.35Zm2.712 2.775h2.711V25.9h-2.712v-2.775Zm2.711-2.775h2.712v2.775h-2.712V20.35Zm-5.423 5.55h2.712v2.775h-2.712V25.9Zm2.712 2.775h2.711v2.775h-2.712v-2.775Zm2.711-2.775h2.712v2.775h-2.712V25.9Zm2.712-2.775h2.712V25.9H28.89v-2.775Zm0 5.55h2.712v2.775H28.89v-2.775ZM35.217 9.25c-.994 0-1.807-.832-1.807-1.85V3.7h-3.616c-.994 0-1.808-.833-1.808-1.85C27.986.832 28.8 0 29.794 0h5.423c.995 0 1.808.833 1.808 1.85V7.4c0 1.018-.813 1.85-1.808 1.85Zm1.808 25.9V29.6c0-1.018-.813-1.85-1.808-1.85-.994 0-1.807.832-1.807 1.85v3.7h-3.616c-.994 0-1.808.833-1.808 1.85 0 1.017.814 1.85 1.808 1.85h5.423c.995 0 1.808-.833 1.808-1.85ZM2.676 37H8.1c.994 0 1.808-.833 1.808-1.85 0-1.017-.814-1.85-1.808-1.85H4.484v-3.7c0-1.018-.813-1.85-1.808-1.85-.994 0-1.807.832-1.807 1.85v5.55c0 1.017.813 1.85 1.807 1.85ZM.87 1.85V7.4c0 1.018.813 1.85 1.807 1.85.995 0 1.808-.832 1.808-1.85V3.7H8.1c.994 0 1.808-.833 1.808-1.85C9.908.832 9.094 0 8.1 0H2.676C1.682 0 .87.833.87 1.85Z" fill="#fff"/></svg>
